assets/img/github.svg

<svg width="26" height="25" viewBox="0 0 26 25" fill="none" xmlns="http://www.w3.org/2000/svg">
<path d="M12.8857 0.856567C6.26021 0.856567 0.915339 6.20154 0.950043 12.7951C0.9778 18.0687 4.43935 22.5427 9.21766 24.1227C9.81824 24.2327 10.0353 23.864 10.0336 23.5474C10.0321 23.2635 10.0177 22.5129 10.0065 21.5171C6.67274 22.238 5.95552 19.9163 5.95552 19.9163C5.40376 18.5369 4.61433 18.1698 4.61433 18.1698C3.51994 17.4296 4.69151 17.4444 4.69151 17.4444C5.89646 17.5291 6.53549 18.6751 6.53549 18.6751C7.61609 20.4989 9.35182 19.9727 10.0342 19.6665C10.1382 18.8951 10.4459 18.3689 10.7878 18.0702C8.12222 17.7684 5.31483 16.7443 5.29076 12.1708C5.2839 10.8672 5.74629 9.80152 6.50989 8.96619C6.3838 8.66445 5.96641 7.45009 6.61027 5.80766C6.61027 5.80766 7.61658 5.4866 9.9167 7.03094C10.8723 6.76636 11.8976 6.63408 12.9191 6.62962C13.9376 6.63556 14.9658 6.76636 15.9257 7.03242C18.2081 5.48809 19.2163 5.80914 19.2163 5.80914C19.8789 7.45306 19.4743 8.66594 19.3529 8.96767C20.1268 9.80301 20.5959 10.8687 20.6028 12.1723C20.6269 16.7577 17.8272 17.767 15.1558 18.0628C15.5882 18.4314 15.976 19.1597 15.9819 20.273C15.9903 21.8693 15.9821 23.1565 15.9841 23.5474C15.9858 23.867 16.2038 24.2386 16.8122 24.1212C21.5663 22.5397 24.9778 18.0672 24.95 12.7951C24.9153 6.20154 19.5142 0.856567 12.8857 0.856567Z" fill="#151512"/>
</svg>

<svg width="26" height="25" fill="none" xmlns="http://www.w3.org/2000/svg"><path d="M12.886.857C6.26.857.916 6.202.95 12.795c.028 5.274 3.49 9.748 8.268 11.328.6.11.817-.259.816-.576-.002-.284-.016-1.034-.027-2.03-3.334.721-4.051-1.6-4.051-1.6-.552-1.38-1.342-1.747-1.342-1.747-1.094-.74.078-.726.078-.726 1.204.085 1.843 1.231 1.843 1.231 1.081 1.824 2.817 1.298 3.5.991.103-.77.41-1.297.753-1.596-2.666-.302-5.473-1.326-5.497-5.9-.007-1.303.455-2.368 1.219-3.204-.126-.302-.544-1.516.1-3.158 0 0 1.007-.321 3.307 1.223.955-.265 1.98-.397 3.002-.401 1.019.006 2.047.136 3.007.402 2.282-1.544 3.29-1.223 3.29-1.223.663 1.644.258 2.857.137 3.159.774.835 1.243 1.9 1.25 3.204.024 4.586-2.776 5.595-5.447 5.89.432.37.82 1.098.826 2.211.008 1.596 0 2.884.002 3.274.002.32.22.692.828.574 4.754-1.581 8.166-6.054 8.138-11.326C24.915 6.202 19.514.857 12.886.857z" fill="#151512"/></svg>
